SVG_Azure_Grouped/Management/Azure CLI.svg

<?xml version="1.0" encoding="UTF-8" standalone="no"?>
<!-- Generated by Microsoft Visio, SVG Export Azure CLI.svg Page-1 -->

<svg
   xmlns:dc="http://purl.org/dc/elements/1.1/"
   xmlns:cc="http://creativecommons.org/ns#"
   xmlns:rdf="http://www.w3.org/1999/02/22-rdf-syntax-ns#"
   xmlns:svg="http://www.w3.org/2000/svg"
   xmlns="http://www.w3.org/2000/svg"
   xmlns:sodipodi="http://sodipodi.sourceforge.net/DTD/sodipodi-0.dtd"
   xmlns:inkscape="http://www.inkscape.org/namespaces/inkscape"
   width="0.7873913in"
   height="0.62985861in"
   viewBox="0 0 56.691979 45.350003"
   xml:space="preserve"
   class="st6"
   version="1.1"
   id="svg54"
   sodipodi:docname="Azure CLI.svg"
   style="font-size:12px;overflow:visible;color-interpolation-filters:sRGB;fill:none;fill-rule:evenodd;stroke-linecap:square;stroke-miterlimit:3"
   inkscape:version="0.92.5 (2060ec1f9f, 2020-04-08)"><metadata
   id="metadata60"><rdf:RDF><cc:Work
       rdf:about=""><dc:format>image/svg+xml</dc:format><dc:type
         rdf:resource="http://purl.org/dc/dcmitype/StillImage" /></cc:Work></rdf:RDF></metadata><defs
   id="defs58" /><sodipodi:namedview
   pagecolor="#ffffff"
   bordercolor="#666666"
   borderopacity="1"
   objecttolerance="10"
   gridtolerance="10"
   guidetolerance="10"
   inkscape:pageopacity="0"
   inkscape:pageshadow="2"
   inkscape:window-width="640"
   inkscape:window-height="480"
   id="namedview56"
   showgrid="false"
   inkscape:zoom="1.9902793"
   inkscape:cx="37.795116"
   inkscape:cy="13.930613"
   inkscape:window-x="0"
   inkscape:window-y="0"
   inkscape:window-maximized="0"
   inkscape:current-layer="svg54" />
	<style
   type="text/css"
   id="style2">
	<![CDATA[
		.st1 {fill:#80bceb;stroke:none;stroke-linecap:butt;stroke-width:9.5625}
		.st2 {fill:#414042;stroke:none;stroke-linecap:butt;stroke-width:9.5625}
		.st3 {fill:#aad2f2;stroke:none;stroke-linecap:butt;stroke-width:9.5625}
		.st4 {fill:#231f20;stroke:none;stroke-linecap:butt;stroke-width:9.5625}
		.st5 {fill:#ffffff;stroke:none;stroke-linecap:butt;stroke-width:9.5625}
		.st6 {fill:none;fill-rule:evenodd;font-size:12px;overflow:visible;stroke-linecap:square;stroke-miterlimit:3}
	]]>
	</style>

	<g
   id="g52"
   transform="translate(-9.5627822,-9.5643)">
		<title
   id="title4">Page-1</title>
		<g
   id="group12858-1"
   transform="translate(9.5625,-34.0157)">
			<title
   id="title6">Azure CLI.12858</title>
			<g
   id="group12859-2">
				<title
   id="title8">Sheet.12859</title>
				<g
   id="shape12860-3">
					<title
   id="title10">Sheet.12860</title>
					<path
   d="M 56.69,47.21 V 88.93 H 0 V 47.21 a 3.54331,3.62835 0 0 1 3.54,-3.63 h 49.61 a 3.54331,3.62835 0 0 1 3.54,3.63 z"
   class="st1"
   id="path12"
   inkscape:connector-curvature="0"
   style="fill:#80bceb;stroke:none;stroke-width:9.5625;stroke-linecap:butt" />
				</g>
				<g
   id="shape12861-5"
   transform="translate(3.54331,-39.0047)">
					<title
   id="title15">Sheet.12861</title>
					<ellipse
   cx="1.77165"
   cy="87.118401"
   rx="1.77165"
   ry="1.81417"
   class="st2"
   id="ellipse17"
   style="fill:#414042;stroke:none;stroke-width:9.5625;stroke-linecap:butt" />
				</g>
				<g
   id="shape12862-7"
   transform="translate(8.85827,-39.0047)">
					<title
   id="title20">Sheet.12862</title>
					<ellipse
   cx="1.77165"
   cy="87.118401"
   rx="1.77165"
   ry="1.81417"
   class="st2"
   id="ellipse22"
   style="fill:#414042;stroke:none;stroke-width:9.5625;stroke-linecap:butt" />
				</g>
				<g
   id="shape12863-9"
   transform="translate(14.1732,-39.0047)">
					<title
   id="title25">Sheet.12863</title>
					<ellipse
   cx="1.77165"
   cy="87.118401"
   rx="1.77165"
   ry="1.81417"
   class="st2"
   id="ellipse27"
   style="fill:#414042;stroke:none;stroke-width:9.5625;stroke-linecap:butt" />
				</g>
				<g
   id="shape12864-11"
   transform="translate(18.6024,-6.34961)">
					<title
   id="title30">Sheet.12864</title>
					<path
   d="M 38.09,53.56 V 88.93 L 34.55,85.3 32.78,62.63 11.52,61.72 0,49.93 h 34.55 a 3.54331,3.62835 0 0 1 3.54,3.63 z"
   class="st3"
   id="path32"
   inkscape:connector-curvature="0"
   style="fill:#aad2f2;stroke:none;stroke-width:9.5625;stroke-linecap:butt" />
				</g>
				<g
   id="shape12865-13"
   transform="translate(2.65748,-2.72126)">
					<title
   id="title35">Sheet.12865</title>
					<rect
   x="0"
   y="54.463299"
   width="51.377998"
   height="34.469299"
   class="st4"
   id="rect37"
   style="fill:#231f20;stroke:none;stroke-width:9.5625;stroke-linecap:butt" />
				</g>
				<g
   id="shape12866-15"
   transform="translate(6.12106,-23.6931)">
					<title
   id="title40">Sheet.12866</title>
					<path
   d="m 2.81,87.18 v 1.25 h -0.7 v -1.2 a 3.80906,3.90047 0 0 1 -2.03,-0.5 v -1.32 a 2.80807,2.87546 -180 0 0 0.93,0.51 3.38386,3.46507 -180 0 0 1.1,0.21 V 83.6 A 4.72146,4.83477 0 0 1 0.39,82.44 1.97539,2.0228 0 0 1 0,81.19 2.00197,2.05002 0 0 1 0.59,79.71 2.51575,2.57613 0 0 1 2.11,78.95 V 77.92 H 2.8 v 1.02 a 3.54331,3.62835 0 0 1 1.63,0.32 V 80.5 A 2.86122,2.92989 -180 0 0 2.81,79.97 v 2.72 a 5.02264,5.14318 0 0 1 1.7,1.1 1.91339,1.95931 0 0 1 -0.12,2.67 2.77264,2.83918 0 0 1 -1.58,0.72 z M 2.12,82.32 v -2.3 A 1.18701,1.2155 -180 0 0 1.44,80.4 0.965551,0.988724 -180 0 0 1.191969,81.089386 1.08071,1.10665 -180 0 0 1.4,81.78 2.17028,2.22236 -180 0 0 2.11,82.32 Z m 0.69,1.6 v 2.21 c 0.64,-0.14 0.95,-0.48 0.95,-1.02 0,-0.53 -0.31,-0.93 -0.95,-1.19 z m 7.55,5.01 H 5.58 v -0.68 h 4.78 z"
   class="st5"
   id="path42"
   inkscape:connector-curvature="0"
   style="fill:#ffffff;stroke:none;stroke-width:9.5625;stroke-linecap:butt" />
				</g>
				<g
   id="shape12867-17"
   transform="translate(26.5748,-9.07087)">
					<title
   id="title45">Sheet.12867</title>
					<path
   d="M 27.46,60.81 V 88.93 L 0,60.81 Z"
   class="st2"
   id="path47"
   inkscape:connector-curvature="0"
   style="fill:#414042;stroke:none;stroke-width:9.5625;stroke-linecap:butt" />
				</g>
			</g>
		</g>
	</g>
</svg>

<?xml version="1.0" encoding="UTF-8" standalone="no"?>
<!DOCTYPE svg PUBLIC "-//W3C//DTD SVG 1.1//EN" "http://www.w3.org/Graphics/SVG/1.1/DTD/svg11.dtd">
<!-- Generated by Microsoft Visio, SVG Export Azure CLI.svg Page-1 -->
<svg xmlns="http://www.w3.org/2000/svg" xmlns:xlink="http://www.w3.org/1999/xlink" xmlns:ev="http://www.w3.org/2001/xml-events"
		width="1.05303in" height="1.23517in" viewBox="0 0 75.8179 88.9326" xml:space="preserve" color-interpolation-filters="sRGB"
		class="st6">
	<style type="text/css">
	<![CDATA[
		.st1 {fill:#80bceb;stroke:none;stroke-linecap:butt;stroke-width:9.5625}
		.st2 {fill:#414042;stroke:none;stroke-linecap:butt;stroke-width:9.5625}
		.st3 {fill:#aad2f2;stroke:none;stroke-linecap:butt;stroke-width:9.5625}
		.st4 {fill:#231f20;stroke:none;stroke-linecap:butt;stroke-width:9.5625}
		.st5 {fill:#ffffff;stroke:none;stroke-linecap:butt;stroke-width:9.5625}
		.st6 {fill:none;fill-rule:evenodd;font-size:12px;overflow:visible;stroke-linecap:square;stroke-miterlimit:3}
	]]>
	</style>

	<g>
		<title>Page-1</title>
		<g id="group12565-1" transform="translate(9.5625,-34.0157)">
			<title>Azure CLI.12565</title>
			<g id="group12566-2">
				<title>Sheet.12566</title>
				<g id="shape12567-3">
					<title>Sheet.12567</title>
					<path d="M56.69 47.21 L56.69 88.93 L0 88.93 L0 47.21 A3.54331 3.62835 0 0 1 3.54 43.58 L53.15 43.58 A3.54331
								 3.62835 0 0 1 56.69 47.21 Z" class="st1"/>
				</g>
				<g id="shape12568-5" transform="translate(3.54331,-39.0047)">
					<title>Sheet.12568</title>
					<ellipse cx="1.77165" cy="87.1184" rx="1.77165" ry="1.81417" class="st2"/>
				</g>
				<g id="shape12569-7" transform="translate(8.85827,-39.0047)">
					<title>Sheet.12569</title>
					<ellipse cx="1.77165" cy="87.1184" rx="1.77165" ry="1.81417" class="st2"/>
				</g>
				<g id="shape12570-9" transform="translate(14.1732,-39.0047)">
					<title>Sheet.12570</title>
					<ellipse cx="1.77165" cy="87.1184" rx="1.77165" ry="1.81417" class="st2"/>
				</g>
				<g id="shape12571-11" transform="translate(18.6024,-6.34961)">
					<title>Sheet.12571</title>
					<path d="M38.09 53.56 L38.09 88.93 L34.55 85.3 L32.78 62.63 L11.52 61.72 L0 49.93 L34.55 49.93 A3.54331 3.62835
								 0 0 1 38.09 53.56 Z" class="st3"/>
				</g>
				<g id="shape12572-13" transform="translate(2.65748,-2.72126)">
					<title>Sheet.12572</title>
					<rect x="0" y="54.4633" width="51.378" height="34.4693" class="st4"/>
				</g>
				<g id="shape12573-15" transform="translate(6.12106,-23.6931)">
					<title>Sheet.12573</title>
					<path d="M2.81 87.18 L2.81 88.43 L2.11 88.43 L2.11 87.23 A3.80906 3.90047 0 0 1 0.08 86.73 L0.08 85.41 A2.80807
								 2.87546 -180 0 0 1.01 85.92 A3.38386 3.46507 -180 0 0 2.11 86.13 L2.11 83.6 A4.72146 4.83477 0 0
								 1 0.39 82.44 A1.97539 2.0228 0 0 1 -0 81.19 A2.00197 2.05002 0 0 1 0.59 79.71 A2.51575 2.57613 0
								 0 1 2.11 78.95 L2.11 77.92 L2.8 77.92 L2.8 78.94 A3.54331 3.62835 0 0 1 4.43 79.26 L4.43 80.5 A2.86122
								 2.92989 -180 0 0 2.81 79.97 L2.81 82.69 A5.02264 5.14318 0 0 1 4.51 83.79 A1.91339 1.95931 0 0 1
								 4.39 86.46 A2.77264 2.83918 0 0 1 2.81 87.18 ZM2.12 82.32 L2.12 80.02 A1.18701 1.2155 -180 0 0 1.44
								 80.4 a0.965551 0.988724 -180 0 0 -0.248031 0.689386 A1.08071 1.10665 -180 0 0 1.4 81.78 A2.17028
								 2.22236 -180 0 0 2.11 82.32 L2.12 82.32 ZM2.81 83.92 L2.81 86.13 C3.45 85.99 3.76 85.65 3.76 85.11
								 C3.76 84.58 3.45 84.18 2.81 83.92 ZM10.36 88.93 L5.58 88.93 L5.58 88.25 L10.36 88.25 L10.36 88.93
								 Z" class="st5"/>
				</g>
				<g id="shape12574-17" transform="translate(26.5748,-9.07087)">
					<title>Sheet.12574</title>
					<path d="M27.46 60.81 L27.46 88.93 L0 60.81 L27.46 60.81 Z" class="st2"/>
				</g>
			</g>
		</g>
	</g>
</svg>
